X: 6
T: The Queen Of The Rushes
R: jig
M: 6/8
L: 1/8
K: Dmix
AG|:F2D DAF|G2E EDE|F2D D3|AFD DAG|
F2D DAF|G2E EDE|F2A GEA|1D3 DAG:|2D3 D2B||
|:c2A Bcd|ecA AGE|d2e fed|ecA AGE|
c2A Bcd|ecA AGE|F3 GEA|1D3 D2:|2D3 DEG||
|:A3 dAF|A3 dAF|G3 E3|cBc EFG|
A3 dAF|A3 dAG|EFF GEA|D3 D2:||


Tune 710	Setting 29410

